X: 1523
T: the Field of Oats
T: pairc an coir.ce.
R: reel
B: O'Neill's 1850 "Music of Ireland" #1523
O: F.O'Neill
Z: transcribed by John B. Walsh, walsh@math.ubc.ca 8/23/96
Z: Compacted via repeats and multiple endings [JC]
M: C|
L: 1/8
K: Em
BA !segno!|| GEEF G2(EF) | G2(FG) AcBA |1 GEEF G2(ef) | gfed B2 :|2 GFEF GABa | gef^d e2 |]
|: ef | g2bg f2af | e2fe BBef |1 gabg fgag | gfe^d e2 :|2 ggbg f2af | gfe^d e=dB!segno!A |]
